src/icons/svgs/24/sort.svg

<svg width="24" height="24" viewBox="0 0 24 24" fill="none" xmlns="http://www.w3.org/2000/svg">
<path d="M16.1693 10.6659H7.80371C6.20452 10.6659 5.39329 8.50905 6.53284 7.2531L10.7316 2.58599C11.4302 1.80467 12.5747 1.80467 13.2778 2.58599L17.4465 7.2531C18.5707 8.50738 17.8052 10.6659 16.1693 10.6659ZM12.0006 3.99863L7.83185 8.66573H16.203L12.0006 3.99863ZM7.79884 13.3703H16.1963C17.7955 13.3703 18.6067 15.5272 17.4672 16.7832L13.2726 21.414C12.5739 22.1953 11.4295 22.1953 10.7263 21.414L6.5576 16.7469C5.39817 15.4914 6.19518 13.3703 7.79884 13.3703ZM12.0006 20.0014L16.1693 15.3343H7.79884L12.0006 20.0014Z" fill="black"/>
</svg>

<svg width="24" height="24" viewBox="0 0 24 24" xmlns="http://www.w3.org/2000/svg">
    <path d="M16.17 10.666H7.803c-1.6 0-2.41-2.157-1.271-3.413l4.199-4.667c.698-.781 1.843-.781 2.546 0l4.168 4.667c1.125 1.254.36 3.413-1.277 3.413zM12 3.999 7.833 8.666h8.371l-4.202-4.667zM7.8 13.37h8.397c1.6 0 2.41 2.157 1.271 3.413l-4.194 4.631c-.7.781-1.843.781-2.547 0l-4.168-4.667c-1.16-1.256-.363-3.377 1.24-3.377zm4.2 6.631 4.168-4.667H7.8l4.2 4.667z"/>
</svg>
